static/images/mobile/copyright/wikipedia-tagline-zh-hans.svg

<?xml version="1.0" encoding="UTF-8" standalone="no"?>
<!-- Created with Inkscape (http://www.inkscape.org/) -->

<svg
   width="101.904"
   height="13.441"
   viewBox="0 0 26.962099 3.5562647"
   version="1.1"
   id="svg649"
   inkscape:version="1.1.2 (b8e25be833, 2022-02-05)"
   sodipodi:docname="Wikipedia-tagline-zh-hans.svg"
   xmlns:inkscape="http://www.inkscape.org/namespaces/inkscape"
   xmlns:sodipodi="http://sodipodi.sourceforge.net/DTD/sodipodi-0.dtd"
   xmlns="http://www.w3.org/2000/svg"
   xmlns:svg="http://www.w3.org/2000/svg">
  <sodipodi:namedview
     id="namedview651"
     pagecolor="#ffffff"
     bordercolor="#666666"
     borderopacity="1.0"
     inkscape:pageshadow="2"
     inkscape:pageopacity="0.0"
     inkscape:pagecheckerboard="0"
     inkscape:document-units="mm"
     showgrid="false"
     units="px"
     inkscape:zoom="9.6030902"
     inkscape:cx="49.827711"
     inkscape:cy="11.819112"
     inkscape:window-width="1280"
     inkscape:window-height="668"
     inkscape:window-x="-6"
     inkscape:window-y="-6"
     inkscape:window-maximized="1"
     inkscape:current-layer="layer1" />
  <defs
     id="defs646" />
  <g
     inkscape:label="Layer 1"
     inkscape:groupmode="layer"
     id="layer1">
    <path
       d="M 0.3145896,3.1612417 V 2.4284781 h 1.749425 v 0.7327636 z m 1.749425,-1.565275 V 2.3133844 H 0.3145896 V 1.5959667 Z m 0,-0.8133292 V 1.4885458 H 0.3145896 V 0.7826375 Z M 2.1906177,0.4795573 2.0218136,0.6752167 H 0.97446045 C 1.1164094,0.5217584 1.2545219,0.3376084 1.3465969,0.1956594 c 0.080566,-0.00384 0.1227667,-0.042201 0.134276,-0.088239 L 0.97446045,0.0191814 C 0.9514418,0.2110043 0.9015678,0.47572 0.8401844,0.6752158 H 0.3414448 L 0,0.5217584 v 3.0269655 h 0.053711 c 0.1419489,0 0.2608791,-0.080566 0.2608791,-0.1189302 V 3.2763354 h 1.749425 V 3.541051 h 0.046037 c 0.1112573,0 0.2647156,-0.080566 0.2723885,-0.1112573 V 0.8478573 c 0.080566,-0.019182 0.1381125,-0.05371 0.1649678,-0.084402 z M 5.3392916,3.1190406 V 2.0908698 H 6.3060791 V 3.1190406 Z M 4.0886062,2.0908698 H 5.0247021 V 3.1190406 H 4.0886062 Z M 5.0247021,1.012825 V 1.975776 H 4.0886062 V 1.012825 Z m 1.281377,0 V 1.975776 H 5.3392916 V 1.012825 Z M 6.4365187,0.6982354 6.2600416,0.9015677 h -0.92075 V 0.2071688 c 0.095912,-0.015346 0.1266032,-0.05371 0.1381125,-0.1074209 L 5.0247021,0.0498739 V 0.9015676 H 4.1154615 L 3.7816896,0.7519458 v 2.8006146 h 0.05371 c 0.1304396,0 0.2532062,-0.072893 0.2532062,-0.1112573 V 3.2302979 h 2.2174729 v 0.2954073 h 0.046038 c 0.1112573,0 0.2608792,-0.072893 0.2647157,-0.1035844 V 1.0933906 c 0.095911,-0.019182 0.1726406,-0.057547 0.2033322,-0.095911 z m 1.4951604,2.2098 V 1.8952104 H 8.675952 v 1.012825 z M 8.675952,0.828675 V 1.7839531 H 7.9316791 V 0.828675 Z M 8.7948822,0.5371042 8.6375874,0.7174177 H 8.1887218 C 8.2923062,0.5601229 8.4112364,0.3644636 8.4956385,0.2186781 c 0.080566,0 0.1304396,-0.030692 0.1457854,-0.084402 L 8.1772124,0.0268552 8.1249674,0.322408 C 8.0994644,0.462489 8.0725324,0.6056127 8.0506094,0.7174177 H 7.9508614 L 7.6439447,0.5754688 v 2.8581614 h 0.05371 c 0.1227666,0 0.2340239,-0.072893 0.2340239,-0.1074208 V 3.0192927 H 8.675952 V 3.3147 h 0.042201 c 0.1035843,0 0.2455333,-0.072893 0.2493698,-0.099748 V 0.8862218 c 0.076729,-0.019182 0.1381124,-0.049874 0.1649677,-0.080566 z M 10.67091,0.5179222 10.490597,0.7135816 H 9.7156322 c 0.072893,-0.1534584 0.141949,-0.3107532 0.2033323,-0.4795573 0.080566,0 0.1266035,-0.034528 0.1419495,-0.080566 L 9.6082114,0.0268552 C 9.4892812,0.6138333 9.2552572,1.2123208 9.0212333,1.5959667 l 0.05371,0.034528 C 9.2936218,1.423326 9.4931176,1.1432646 9.6580853,0.8248386 h 0.8708757 l -0.01082,0.491736 c -0.02708,0.9952196 -0.08165,1.6383344 -0.200374,1.7827228 l -0.01132,0.012065 c -0.03453,0.042201 -0.06522,0.05371 -0.141949,0.05371 l -0.06114,-0.00185 C 9.9815202,3.157511 9.7699821,3.1388632 9.6197208,3.1228771 l -0.00384,0.06522 c 0.1688042,0.030692 0.326099,0.076729 0.3874822,0.1304395 0.06138,0.046037 0.07673,0.1304396 0.07673,0.2301875 0.207169,0 0.364464,-0.057547 0.479557,-0.1918229 0.18415,-0.2225146 0.24937,-1.0320073 0.276225,-2.4860249 0.08824,-0.011509 0.134276,-0.030692 0.164968,-0.06522 z M 9.3550051,1.5269107 C 9.5391551,1.730243 9.7424874,2.0601784 9.780852,2.3210576 10.095442,2.5742638 10.36783,1.8913743 9.3933697,1.5000555 Z M 14.157193,1.2506857 V 2.0831972 H 12.411604 V 1.2506854 Z m -1.745589,1.860682 V 2.1944542 h 1.745589 v 0.9169135 z m 1.941248,-2.7545771 h -2.76225 l 0.03453,0.1074209 h 1.396471 l -0.0226,0.1723998 c -0.02464,0.1783953 -0.05413,0.3675804 -0.07715,0.5028168 h -0.48339 L 12.100852,0.9936427 v 2.5512448 h 0.05371 c 0.138112,0 0.257042,-0.076729 0.257042,-0.1150938 V 3.222625 h 1.745589 v 0.2992437 h 0.04987 c 0.107421,0 0.260879,-0.076729 0.264715,-0.099748 V 1.3082322 c 0.07673,-0.015346 0.134276,-0.049874 0.157295,-0.080566 l -0.345276,-0.2723885 -0.164968,0.18415 h -1.078046 c 0.118931,-0.176477 0.257043,-0.4411927 0.364464,-0.6752166 h 1.461691 c 0.05755,0 0.09591,-0.019182 0.10742,-0.061383 L 14.758473,0.2295684 C 14.65649,0.1494504 14.57153,0.0844021 14.57153,0.0844021 Z m 2.918487,0.095911 c 0.18415,0.141949 0.398991,0.3874823 0.464211,0.5908146 0.310753,0.1994958 0.521758,-0.4296834 -0.425847,-0.6215063 z m -0.0844,0.92075 c 0.187987,0.134276 0.410502,0.3759729 0.475721,0.5716323 0.318426,0.1956594 0.525595,-0.4373563 -0.441192,-0.6061604 z m -0.648361,-0.092075 h 0.55245 c 0.04987,0 0.08824,-0.019182 0.09591,-0.061383 l -0.04987,-0.049713 C 17.022191,1.0590504 16.872347,0.9322594 16.872347,0.9322594 L 16.69587,1.1701198 H 16.538575 V 0.460375 c 0.149622,-0.038365 0.287734,-0.076729 0.402828,-0.1112573 0.09975,0.030692 0.172641,0.030692 0.203332,-0.00384 l -0.360627,-0.314586 c -0.264715,0.1764771 -0.79031,0.4066646 -1.22383,0.5332677 l 0.01918,0.057547 c 0.214842,-0.019182 0.44503,-0.057547 0.659871,-0.099748 v 0.6483614 h -0.675216 l 0.03069,0.1112573 h 0.586978 C 16.043669,1.8146448 15.805809,2.3670948 15.47971,2.7737594 l 0.05371,0.049874 c 0.283898,-0.2493698 0.521758,-0.5447771 0.705908,-0.878549 v 1.6113125 h 0.04987 c 0.145786,0 0.24937,-0.072893 0.24937,-0.095911 V 1.6304953 c 0.134276,0.1572948 0.276225,0.3606271 0.326099,0.5332677 0.260879,0.1918229 0.491067,-0.326099 -0.326099,-0.6330156 z m 2.140744,0.9360958 -0.134276,0.026855 V 0.2532063 c 0.09591,-0.015346 0.126603,-0.057547 0.138112,-0.1112573 L 18.245802,0.095912 v 2.2059635 l -1.346597,0.2608792 0.04987,0.099748 1.296723,-0.2493698 v 1.1317547 h 0.05755 c 0.115094,0 0.241697,-0.072893 0.241697,-0.1112573 V 2.3555854 l 0.54094,-0.1035844 c 0.04604,-0.00767 0.0844,-0.038365 0.0844,-0.080566 L 19.055049,2.0831307 C 18.944188,2.000467 18.832777,1.9220656 18.832777,1.9220656 Z m 3.785523,1.0857182 H 21.490384 V 2.4783521 h 1.085718 c 0.05371,0 0.09591,-0.019182 0.103584,-0.061383 L 22.622946,2.369357 C 22.483786,2.2555385 22.30755,2.1292344 22.30755,2.1292344 L 22.111891,2.3670948 H 21.490384 V 1.6420042 h 0.92075 c 0.05371,0 0.09208,-0.019182 0.103585,-0.061383 l -0.08386,-0.068585 C 22.303594,1.4094645 22.161765,1.3005594 22.161765,1.3005594 l -0.191823,0.2301875 h -1.745589 l 0.03069,0.1112573 h 0.916915 V 2.3670948 H 20.15146 l 0.03069,0.1112573 h 0.989808 v 0.8248385 h -1.500055 l 0.03453,0.1150938 h 3.253317 c 0.05371,0 0.09208,-0.019182 0.09975,-0.061383 l -0.05383,-0.04908 C 22.863178,3.1818454 22.67202,3.0384756 22.67202,3.0384756 Z M 21.156612,0 c -0.195659,0.5601229 -0.962951,1.3772885 -1.607476,1.7762802 l 0.02686,0.049874 c 0.732763,-0.3376083 1.507728,-0.9898063 1.879864,-1.5691115 0.260879,0.5869781 0.832512,1.0972271 1.438672,1.4233261 0.03069,-0.1189302 0.134276,-0.2416969 0.276225,-0.2723885 l 0.0038,-0.057547 c -0.644492,-0.2570427 -1.304363,-0.644525 -1.649645,-1.1432645 0.09975,-0.00767 0.149622,-0.026855 0.161132,-0.076729 z m 4.773481,0.1803136 c 0.230187,0.1611312 0.533267,0.452702 0.65987,0.6752166 0.364464,0.1649677 0.49874,-0.5332677 -0.625342,-0.7097448 z m -1.043517,-0.1688042 0.445029,0.049874 c -0.0077,0.049874 -0.03453,0.084402 -0.122767,0.099748 v 0.6713802 h 0.728928 l 0.141949,-0.1611313 0.318426,0.2570427 c -0.02686,0.030692 -0.05755,0.042201 -0.126604,0.049874 l -0.05755,0.8363479 h 0.234023 l 0.180314,-0.1803136 0.333772,0.2800615 c -0.02685,0.030692 -0.07289,0.049874 -0.149622,0.061383 l -0.0079,0.16705 c -0.03096,0.5633482 -0.09751,0.9028218 -0.237625,1.0184157 -0.09975,0.084402 -0.245533,0.1266031 -0.43352,0.1266031 0.0038,-0.095912 -0.01535,-0.1764771 -0.06906,-0.2225146 -0.06522,-0.049874 -0.226351,-0.099748 -0.379809,-0.1227667 l 0.0038,-0.057547 0.430522,0.030753 c 0.03992,0.00238 0.07205,0.00378 0.09124,0.00378 0.06906,0 0.09975,-0.00767 0.13044,-0.034528 0.08057,-0.072893 0.122767,-0.4220104 0.141949,-0.9591146 h -1.273675 v 1.5115641 c 0,0.042201 -0.141949,0.1189302 -0.260879,0.1189302 h -0.06138 V 1.92591 h -1.323578 l -0.03069,-0.1112573 h 1.354269 V 0.9476132 h -1.035843 l -0.03453,-0.1150938 h 1.070372 z m 1.078045,0.9360958 h -0.755783 v 0.8670396 h 0.694399 z"
       id="theFreeEncyclopedia"
       style="stroke-width:0.264583" />
  </g>
</svg>

<svg width="101.904" height="13.441" viewBox="0 0 26.962 3.556" xmlns="http://www.w3.org/2000/svg"><path d="M.315 3.161v-.733h1.749v.733zm1.749-1.565v.717H.314v-.717zm0-.813v.706H.314V.783zM2.191.48l-.17.195H.975c.142-.153.28-.337.373-.48.08-.003.122-.042.134-.088L.974.02A4.152 4.152 0 0 1 .84.675H.341L0 .522v3.027h.054c.142 0 .26-.08.26-.12v-.153h1.75v.265h.046c.111 0 .265-.08.272-.111V.848a.327.327 0 0 0 .165-.085zm3.148 2.639V2.091h.967v1.028zM4.09 2.091h.936v1.028h-.936zm.936-1.078v.963h-.936v-.963zm1.281 0v.963H5.34v-.963zm.13-.315L6.26.902h-.92V.207c.095-.015.126-.054.137-.107L5.025.05v.852h-.91l-.333-.15v2.8h.053c.13 0 .254-.072.254-.11V3.23h2.217v.296h.046c.111 0 .261-.073.265-.104V1.093c.096-.019.172-.057.203-.096zm1.496 2.21V1.895h.744v1.013zm.744-2.08v.956h-.744V.829zm.119-.29-.157.18h-.45c.104-.158.223-.354.308-.5.08 0 .13-.03.145-.084L8.177.027l-.052.295c-.026.14-.052.284-.074.395h-.1L7.644.575v2.859h.054c.122 0 .234-.073.234-.108V3.02h.744v.296h.042c.104 0 .246-.073.25-.1V.886a.346.346 0 0 0 .164-.08zm1.876-.02-.18.196h-.775c.073-.154.142-.311.203-.48.08 0 .127-.035.142-.08L9.608.026c-.119.587-.353 1.185-.587 1.569l.054.034c.219-.207.418-.487.583-.805h.871l-.01.492c-.028.995-.083 1.638-.201 1.782l-.012.012c-.034.043-.065.054-.142.054l-.06-.002a9.95 9.95 0 0 1-.484-.04l-.004.065c.169.03.326.077.387.13.062.047.077.131.077.23.207 0 .365-.057.48-.191.184-.223.249-1.032.276-2.486.088-.012.134-.03.165-.065zM9.355 1.527c.184.203.387.533.426.794.314.253.587-.43-.388-.82zm4.802-.276v.832h-1.745v-.832zm-1.745 1.86v-.917h1.745v.917zm1.94-2.754h-2.761l.034.107h1.397l-.023.173c-.025.178-.054.367-.077.502h-.484l-.337-.145v2.55h.054c.138 0 .257-.076.257-.114v-.207h1.745v.299h.05c.107 0 .26-.077.265-.1V1.308a.272.272 0 0 0 .157-.08l-.345-.273-.165.184H13.04c.119-.176.257-.44.364-.675h1.462c.057 0 .096-.019.107-.061L14.758.23l-.186-.146zm2.92.096c.183.142.398.387.464.59.31.2.521-.43-.426-.621zm-.085.92c.188.135.41.376.476.572.318.196.525-.437-.442-.606zm-.648-.092h.552c.05 0 .088-.019.096-.061l-.05-.05c-.115-.11-.265-.238-.265-.238l-.176.238h-.157V.46c.15-.038.287-.076.402-.11.1.03.173.03.204-.005l-.36-.314c-.266.176-.791.406-1.225.533l.02.058c.214-.02.444-.058.66-.1v.648h-.676l.03.111h.588c-.138.534-.376 1.086-.702 1.493l.053.05c.284-.25.522-.545.706-.879v1.611h.05c.146 0 .25-.072.25-.096V1.63c.134.158.276.361.326.534.26.192.49-.326-.326-.633zm2.14.936-.134.027V.254c.096-.016.127-.058.138-.112l-.437-.046v2.206l-1.347.26.05.1 1.297-.249v1.132h.057c.115 0 .242-.073.242-.111V2.356l.541-.104c.046-.008.084-.038.084-.08l-.115-.089c-.11-.083-.222-.16-.222-.16zm3.786 1.086h-.975v-.825h1.086c.054 0 .096-.019.104-.061l-.057-.048c-.14-.113-.315-.24-.315-.24l-.196.238h-.622v-.725h.921c.054 0 .092-.02.104-.061l-.084-.069c-.127-.103-.27-.211-.27-.211l-.191.23h-1.746l.031.111h.917v.725h-1.02l.03.111h.99v.825h-1.5l.034.115h3.254c.053 0 .092-.019.1-.061l-.054-.05c-.143-.125-.334-.269-.334-.269zM21.157 0c-.196.56-.963 1.377-1.608 1.776l.027.05c.733-.337 1.508-.99 1.88-1.569.26.587.832 1.097 1.439 1.423a.382.382 0 0 1 .276-.272l.004-.058c-.645-.257-1.305-.644-1.65-1.143.1-.008.15-.027.161-.077zm4.773.18c.23.161.533.453.66.676.364.164.499-.534-.625-.71zM24.887.012l.445.05c-.008.05-.035.084-.123.1v.67h.729l.142-.16.318.256c-.027.031-.057.043-.126.05l-.058.837h.234l.18-.18.334.28c-.027.03-.073.05-.15.06l-.007.168c-.031.563-.098.903-.238 1.018-.1.085-.246.127-.434.127.004-.096-.015-.177-.069-.223-.065-.05-.226-.1-.38-.122l.004-.058.43.03c.04.003.073.005.092.005.07 0 .1-.008.13-.035.081-.073.123-.422.143-.96h-1.274v1.512c0 .043-.142.12-.261.12h-.061V1.925h-1.324l-.03-.111h1.354V.948H23.85l-.035-.115h1.07zm1.078.936h-.756v.867h.694z" style="stroke-width:.264583"/></svg>
